public/ferris.svg

<svg xmlns="http://www.w3.org/2000/svg" xml:space="preserve" style="fill-rule:evenodd;clip-rule:evenodd;stroke-linejoin:round;stroke-miterlimit:1.41421" viewBox="0 0 1200 800"><path d="M0-279.559c-121.238 0-231.39 14.576-312.939 38.329v202.901C-231.39-14.575-121.238 0 0 0c138.76 0 262.987-19.092 346.431-49.186V-230.37C262.987-260.465 138.76-279.559 0-279.559" style="fill:#a52b00;fill-rule:nonzero" transform="translate(597.344 637.02)"/><path d="m0-53.32-14.211-29.441c.073-1.118.131-2.237.131-3.36 0-33.375-34.706-64.135-93.097-88.762V2.643c27.245-11.492 49.348-24.317 65.156-38.125-4.652 18.707-20.564 56.553-33.25 83.168-20.85 38.066-28.4 71.203-27.432 72.844.617 1.033 7.73-9.94 18.219-27.721C-60.074 58.028-13.82-8.373-4.575-25.287 5.897-44.461 0-53.32 0-53.32" style="fill:#a52b00;fill-rule:nonzero" transform="translate(1068.75 575.642)"/><path d="M0-99.954c0 6.428 1.293 12.76 3.788 18.969l-8.511 15.15s-6.818 8.846 5.188 27.508C11.055-21.872 64.1 42.54 92.097 76.271c12.026 17.293 20.179 27.945 20.893 26.916 1.124-1.633-7.476-34.1-31.359-71.141-11.144-19.895-24.454-46.252-32.442-65.721 22.303 14.116 51.483 26.92 86.152 37.94V-204.17C51.797-177.622 0-140.737 0-99.954" style="fill:#a52b00;fill-rule:nonzero" transform="translate(149.064 591.421)"/><path d="m0 240.343-93.415-68.811c-.88-3.064-1.756-6.127-2.662-9.162l30.683-44.451c3.13-4.522 3.765-10.398 1.731-15.555-2.037-5.13-6.491-8.81-11.763-9.71l-51.884-8.805c-2.008-4.102-4.116-8.142-6.23-12.15l21.797-49.903c2.243-5.087 1.769-10.995-1.203-15.608-2.961-4.636-7.99-7.344-13.349-7.133L-178.951.968a437.693 437.693 0 0 0-8.321-10.521l12.1-53.49c1.225-5.433-.322-11.118-4.103-15.064-3.762-3.932-9.229-5.559-14.426-4.283l-51.289 12.608a441.744 441.744 0 0 0-10.114-8.673l1.848-54.914c.198-5.559-2.393-10.842-6.844-13.925-4.446-3.104-10.093-3.573-14.956-1.266l-47.847 22.747c-3.854-2.21-7.728-4.4-11.644-6.517l-8.455-54.115c-.857-5.483-4.385-10.139-9.326-12.266-4.923-2.137-10.568-1.447-14.891 1.808l-42.659 32.007a445.391 445.391 0 0 0-12.692-4.011l-18.386-51.316c-1.87-5.229-6.181-9.071-11.438-10.151-5.239-1.072-10.63.742-14.263 4.802l-35.906 40.171c-4.343-.5-8.686-.956-13.043-1.331l-27.724-46.713c-2.81-4.732-7.77-7.612-13.116-7.612-5.334 0-10.304 2.88-13.09 7.612l-27.733 46.713c-4.358.375-8.722.831-13.056 1.331l-35.91-40.171c-3.636-4.06-9.047-5.874-14.268-4.802-5.255 1.092-9.573 4.922-11.433 10.151l-18.402 51.316a512.667 512.667 0 0 0-12.691 4.011l-42.644-32.007c-4.336-3.266-9.98-3.955-14.916-1.808-4.919 2.127-8.461 6.783-9.313 12.266l-8.461 54.115a508.241 508.241 0 0 0-11.653 6.517l-47.842-22.747c-4.858-2.316-10.529-1.838-14.954 1.266-4.445 3.083-7.042 8.366-6.84 13.925l1.835 54.914a511.197 511.197 0 0 0-10.112 8.673l-51.279-12.608c-5.21-1.265-10.67.351-14.441 4.283-3.795 3.946-5.331 9.631-4.113 15.064l12.079 53.49A509.791 509.791 0 0 0-933.976.968l-52.655-1.913c-5.314-.157-10.386 2.497-13.356 7.133-2.973 4.613-3.423 10.521-1.213 15.608l21.816 49.903c-2.119 4.008-4.224 8.048-6.249 12.15l-51.887 8.805c-5.27.888-9.71 4.566-11.76 9.71-2.04 5.157-1.37 11.033 1.73 15.555l30.7 44.451c-.24.784-.46 1.577-.7 2.364l-86.77 92.17s-13.29 10.423 6.07 34.916c17.07 21.605 104.724 107.252 151.018 152.123 19.554 22.779 32.948 36.886 34.349 35.666 2.208-1.94-9.387-43.385-47.902-92.012-29.685-43.629-68.215-110.733-59.175-118.467 0 0 10.27-13.045 30.893-22.435.753.603-.781-.598 0 0 0 0 435.152 200.732 838.797 3.396 46.108-8.273 74.023 16.43 74.023 16.43 9.628 5.58-15.301 74.578-35.798 120.254-27.881 51.863-31.97 92.332-29.604 93.736 1.491.889 11.634-14.545 26.104-39.109C-79.843 391.654-12.354 296.816 0 273.782c14.006-26.119 0-33.439 0-33.439" style="fill:#f74c00;fill-rule:nonzero" transform="translate(1151.27 281.813)"/><path d="M0 167.33c-1.664-1.42-2.536-2.262-2.536-2.262l142.542-11.677C23.733 0-69.418 122.193-79.333 135.855v31.475H0Z" style="fill-rule:nonzero" transform="translate(450.328 483.629)"/><path d="M0 171.974c1.663-1.42 2.536-2.264 2.536-2.264l-136.984-10.023C-18.12 0 69.421 126.835 79.335 140.497v31.477H0Z" style="fill-rule:nonzero" transform="translate(747.12 477.333)"/><path d="M0-314.014s-15.576 62.041-112.453 127.238l-27.166 6.367s-87.881-160.259-212.383 20.334c0 0 38.802-22.591 142.822 4.92 0 0-47.85 73.239-144.242 70.989 0 0 92.373 110.82 232.94-49.252 0 0 148.595-57.463 160.646-180.596H0Z" style="fill:#f74c00;fill-rule:nonzero" transform="translate(966.094 811.034)"/><path d="M0-92.063s43.486-47.615 86.974 0c0 0 34.17 63.492 0 95.234 0 0-55.912 44.444-86.974 0 0 0-37.275-34.921 0-95.234" style="fill-rule:nonzero" transform="translate(677.392 509.61)"/><path d="M0 .002c0 18.541-10.93 33.572-24.408 33.572-13.477 0-24.406-15.031-24.406-33.572 0-18.541 10.929-33.574 24.406-33.574C-10.93-33.572 0-18.539 0 .002" style="fill:#fff;fill-rule:nonzero" transform="translate(727.738 435.209)"/><path d="M0-98.439s74.596-33.028 94.956 40.691c0 0 21.327 85.926-61.259 90.776 0 0-105.31-20.283-33.697-131.467" style="fill-rule:nonzero" transform="translate(483.3 502.984)"/><path d="M0 0c0 19.119-11.27 34.627-25.173 34.627-13.898 0-25.171-15.508-25.171-34.627 0-19.124 11.273-34.627 25.171-34.627C-11.27-34.627 0-19.124 0 0" style="fill:#fff;fill-rule:nonzero" transform="translate(520.766 436.428)"/><path d="M0-25.102c91.833-11.574 144.904-12.652 144.904-12.652C22.037-199.838-77.661-53.098-77.661-53.098c-24.982-8.932-50.453-43.613-69.477-75.59l-76.237-22.58C-135.502-2.127-70.08.146-70.08.146c136.214 174.59 200.743 34.295 200.743 34.295C54.195 25.759 0-25.102 0-25.102" style="fill:#f74c00;fill-rule:nonzero" transform="translate(441.397 687.635)"/></svg>

<?xml version="1.0" encoding="UTF-8" standalone="no"?>
<!DOCTYPE svg PUBLIC "-//W3C//DTD SVG 1.1//EN" "http://www.w3.org/Graphics/SVG/1.1/DTD/svg11.dtd">
<svg width="100%" height="100%" viewBox="0 0 1200 800" version="1.1" xmlns="http://www.w3.org/2000/svg" xmlns:xlink="http://www.w3.org/1999/xlink" xml:space="preserve" xmlns:serif="http://www.serif.com/" style="fill-rule:evenodd;clip-rule:evenodd;stroke-linejoin:round;stroke-miterlimit:1.41421;">
    <g id="Layer-1" serif:id="Layer 1">
        <g transform="matrix(1,0,0,1,597.344,637.02)">
            <path d="M0,-279.559C-121.238,-279.559 -231.39,-264.983 -312.939,-241.23L-312.939,-38.329C-231.39,-14.575 -121.238,0 0,0C138.76,0 262.987,-19.092 346.431,-49.186L346.431,-230.37C262.987,-260.465 138.76,-279.559 0,-279.559" style="fill:rgb(165,43,0);fill-rule:nonzero;"/>
        </g>
        <g transform="matrix(1,0,0,1,1068.75,575.642)">
            <path d="M0,-53.32L-14.211,-82.761C-14.138,-83.879 -14.08,-84.998 -14.08,-86.121C-14.08,-119.496 -48.786,-150.256 -107.177,-174.883L-107.177,2.643C-79.932,-8.849 -57.829,-21.674 -42.021,-35.482C-46.673,-16.775 -62.585,21.071 -75.271,47.686C-96.121,85.752 -103.671,118.889 -102.703,120.53C-102.086,121.563 -94.973,110.59 -84.484,92.809C-60.074,58.028 -13.82,-8.373 -4.575,-25.287C5.897,-44.461 0,-53.32 0,-53.32" style="fill:rgb(165,43,0);fill-rule:nonzero;"/>
        </g>
        <g transform="matrix(1,0,0,1,149.064,591.421)">
            <path d="M0,-99.954C0,-93.526 1.293,-87.194 3.788,-80.985L-4.723,-65.835C-4.723,-65.835 -11.541,-56.989 0.465,-38.327C11.055,-21.872 64.1,42.54 92.097,76.271C104.123,93.564 112.276,104.216 112.99,103.187C114.114,101.554 105.514,69.087 81.631,32.046C70.487,12.151 57.177,-14.206 49.189,-33.675C71.492,-19.559 100.672,-6.755 135.341,4.265L135.341,-204.17C51.797,-177.622 0,-140.737 0,-99.954" style="fill:rgb(165,43,0);fill-rule:nonzero;"/>
        </g>
        <g transform="matrix(1,0,0,1,1151.27,281.813)">
            <path d="M0,240.343L-93.415,171.532C-94.295,168.468 -95.171,165.405 -96.077,162.37L-65.394,117.919C-62.264,113.397 -61.629,107.521 -63.663,102.364C-65.7,97.234 -70.154,93.554 -75.426,92.654L-127.31,83.849C-129.318,79.747 -131.426,75.707 -133.54,71.699L-111.743,21.796C-109.5,16.709 -109.974,10.801 -112.946,6.188C-115.907,1.552 -120.936,-1.156 -126.295,-0.945L-178.951,0.968C-181.678,-2.582 -184.447,-6.1 -187.272,-9.553L-175.172,-63.043C-173.947,-68.476 -175.494,-74.161 -179.275,-78.107C-183.037,-82.039 -188.504,-83.666 -193.701,-82.39L-244.99,-69.782C-248.311,-72.717 -251.688,-75.615 -255.104,-78.455L-253.256,-133.369C-253.058,-138.928 -255.649,-144.211 -260.1,-147.294C-264.546,-150.398 -270.193,-150.867 -275.056,-148.56L-322.903,-125.813C-326.757,-128.023 -330.631,-130.213 -334.547,-132.33L-343.002,-186.445C-343.859,-191.928 -347.387,-196.584 -352.328,-198.711C-357.251,-200.848 -362.896,-200.158 -367.219,-196.903L-409.878,-164.896C-414.078,-166.291 -418.297,-167.628 -422.57,-168.907L-440.956,-220.223C-442.826,-225.452 -447.137,-229.294 -452.394,-230.374C-457.633,-231.446 -463.024,-229.632 -466.657,-225.572L-502.563,-185.401C-506.906,-185.901 -511.249,-186.357 -515.606,-186.732L-543.33,-233.445C-546.14,-238.177 -551.1,-241.057 -556.446,-241.057C-561.78,-241.057 -566.75,-238.177 -569.536,-233.445L-597.269,-186.732C-601.627,-186.357 -605.991,-185.901 -610.325,-185.401L-646.235,-225.572C-649.871,-229.632 -655.282,-231.446 -660.503,-230.374C-665.758,-229.282 -670.076,-225.452 -671.936,-220.223L-690.338,-168.907C-694.598,-167.628 -698.819,-166.28 -703.029,-164.896L-745.673,-196.903C-750.009,-200.169 -755.653,-200.858 -760.589,-198.711C-765.508,-196.584 -769.05,-191.928 -769.902,-186.445L-778.363,-132.33C-782.277,-130.213 -786.152,-128.036 -790.016,-125.813L-837.858,-148.56C-842.716,-150.876 -848.387,-150.398 -852.812,-147.294C-857.257,-144.211 -859.854,-138.928 -859.652,-133.369L-857.817,-78.455C-861.222,-75.615 -864.591,-72.717 -867.929,-69.782L-919.208,-82.39C-924.418,-83.655 -929.878,-82.039 -933.649,-78.107C-937.444,-74.161 -938.98,-68.476 -937.762,-63.043L-925.683,-9.553C-928.485,-6.086 -931.258,-2.582 -933.976,0.968L-986.631,-0.945C-991.945,-1.102 -997.017,1.552 -999.987,6.188C-1002.96,10.801 -1003.41,16.709 -1001.2,21.796L-979.384,71.699C-981.503,75.707 -983.608,79.747 -985.633,83.849L-1037.52,92.654C-1042.79,93.542 -1047.23,97.22 -1049.28,102.364C-1051.32,107.521 -1050.65,113.397 -1047.55,117.919L-1016.85,162.37C-1017.09,163.154 -1017.31,163.947 -1017.55,164.734L-1104.32,256.904C-1104.32,256.904 -1117.61,267.327 -1098.25,291.82C-1081.18,313.425 -993.526,399.072 -947.232,443.943C-927.678,466.722 -914.284,480.829 -912.883,479.609C-910.675,477.669 -922.27,436.224 -960.785,387.597C-990.47,343.968 -1029,276.864 -1019.96,269.13C-1019.96,269.13 -1009.69,256.085 -989.067,246.695C-988.314,247.298 -989.848,246.097 -989.067,246.695C-989.067,246.695 -553.915,447.427 -150.27,250.091C-104.162,241.818 -76.247,266.521 -76.247,266.521C-66.619,272.101 -91.548,341.099 -112.045,386.775C-139.926,438.638 -144.015,479.107 -141.649,480.511C-140.158,481.4 -130.015,465.966 -115.545,441.402C-79.843,391.654 -12.354,296.816 0,273.782C14.006,247.663 0,240.343 0,240.343" style="fill:rgb(247,76,0);fill-rule:nonzero;"/>
        </g>
        <g transform="matrix(1,0,0,1,450.328,483.629)">
            <path d="M0,167.33C-1.664,165.91 -2.536,165.068 -2.536,165.068L140.006,153.391C23.733,0 -69.418,122.193 -79.333,135.855L-79.333,167.33L0,167.33Z" style="fill-rule:nonzero;"/>
        </g>
        <g transform="matrix(1,0,0,1,747.12,477.333)">
            <path d="M0,171.974C1.663,170.554 2.536,169.71 2.536,169.71L-134.448,159.687C-18.12,0 69.421,126.835 79.335,140.497L79.335,171.974L0,171.974Z" style="fill-rule:nonzero;"/>
        </g>
        <g transform="matrix(1,0,0,1,966.094,811.034)">
            <path d="M0,-314.014C0,-314.014 -15.576,-251.973 -112.453,-186.776L-139.619,-180.409C-139.619,-180.409 -227.5,-340.668 -352.002,-160.075C-352.002,-160.075 -313.2,-182.666 -209.18,-155.155C-209.18,-155.155 -257.03,-81.916 -353.422,-84.166C-353.422,-84.166 -261.049,26.654 -120.482,-133.418C-120.482,-133.418 28.113,-190.881 40.164,-314.014L0,-314.014Z" style="fill:rgb(247,76,0);fill-rule:nonzero;"/>
        </g>
        <g transform="matrix(1,0,0,1,677.392,509.61)">
            <path d="M0,-92.063C0,-92.063 43.486,-139.678 86.974,-92.063C86.974,-92.063 121.144,-28.571 86.974,3.171C86.974,3.171 31.062,47.615 0,3.171C0,3.171 -37.275,-31.75 0,-92.063" style="fill-rule:nonzero;"/>
        </g>
        <g transform="matrix(1,0,0,1,727.738,435.209)">
            <path d="M0,0.002C0,18.543 -10.93,33.574 -24.408,33.574C-37.885,33.574 -48.814,18.543 -48.814,0.002C-48.814,-18.539 -37.885,-33.572 -24.408,-33.572C-10.93,-33.572 0,-18.539 0,0.002" style="fill:white;fill-rule:nonzero;"/>
        </g>
        <g transform="matrix(1,0,0,1,483.3,502.984)">
            <path d="M0,-98.439C0,-98.439 74.596,-131.467 94.956,-57.748C94.956,-57.748 116.283,28.178 33.697,33.028C33.697,33.028 -71.613,12.745 0,-98.439" style="fill-rule:nonzero;"/>
        </g>
        <g transform="matrix(1,0,0,1,520.766,436.428)">
            <path d="M0,0C0,19.119 -11.27,34.627 -25.173,34.627C-39.071,34.627 -50.344,19.119 -50.344,0C-50.344,-19.124 -39.071,-34.627 -25.173,-34.627C-11.27,-34.627 0,-19.124 0,0" style="fill:white;fill-rule:nonzero;"/>
        </g>
        <g transform="matrix(1,0,0,1,441.397,687.635)">
            <path d="M0,-25.102C91.833,-36.676 144.904,-37.754 144.904,-37.754C22.037,-199.838 -77.661,-53.098 -77.661,-53.098C-102.643,-62.03 -128.114,-96.711 -147.138,-128.688L-223.375,-151.268C-135.502,-2.127 -70.08,0.146 -70.08,0.146C66.134,174.736 130.663,34.441 130.663,34.441C54.195,25.759 0,-25.102 0,-25.102" style="fill:rgb(247,76,0);fill-rule:nonzero;"/>
        </g>
    </g>
</svg>
